X:1
T: Rock Valley (J-78)
M:6/8
K:Am
|:"C"C2E GFE|"F"D2E"Dm"F2A|"G"GAG GBd|"C"cBc "G7"AGE|
"C"C2E GFE|"F"D2E"Dm"F2A|"G"GAG GBd|1 "C"cdc c3 :|2 "C"cdc cef|]
|:"C"gag gag|"C"e2c cBA|"C"G2c B2c|"Dm"e2d d^cd|
"C"gag gag|"C"e2c cBA|"G"G2c "G7"Bcd|"C"cdc c3:|
%%text Transition -- play this instead of last measure above:
|c3^f2g|

